X:144340
T:Blue Bells of Scotland
C:
B:
H:
O:Arranged by Kevin Fraser
O:Transcribed by Kevin Fraser
Z:Kevin Fraser
Q:1/4=90
K:HP
M:4/4
L:1/8
R:March
U: R = ///
U: r = //
U: V = !accent!
V:M gstem=up stem=down name="Melody" sname="Melody" 
V:H gstem=up stem=down name="Harmony" sname="Harmony"
V:C gstem=up stem=down name="C-Harmony" sname="C-Harmony"
V:S gstem=up stem=down dyn=up stafflines=1 clef=perc middle=G name="Snare" sname="Snare"" sname="Snare"
V:B gstem=up stem=down clef=none dyn=up name="Bass" sname="Bass"
V:T gstem=up stem=down clef=none dyn=up name="Tenor" sname="Tenor"
V:BB gstem=up stem=down name="Brass Bass" sname="ABCD-C" transpose=-1  octave=-1 clef=bass
V:BC gstem=up stem=down name="Brass Chord" sname="ABCD-D" transpose=-1
V:BD gstem=up stem=down name="Brass Chord 2" sname="ABCD-B" transpose=-1
V:P gstem=up stem=down name="Piano" octave=-1
I:MIDI=program 110
%%MIDI gracedivider 4
%%MIDI gchord
%%MIDI beatstring 
% %alignbars 80
I:linebreak $
%%score {M H S}
% %score {M}
%%MIDI program 109 #bagpipes
%%MIDI vol 100
%%barsperscore 4
%%landscape
[V:M][|e2 | {ag}a4 {f}g2 {a}f2 | {gef}e4  {g}f2 {gf}ga | c2 {GdG}c2 {Gdc}d2 {e}B2 |{g}A4 {GAGA}A2 e2 | $
w:     e  | chili   vedi che   |   hete   che   divedi I | o  dro  tra       uo   | hen   rarin  e
[V:M]| {ag}a4 {f}g2 {a}f2 | {gef}e4  {g}f2 {gf}ga | c2 {GdG}c2 {Gdc}d2 {e}B2 |{g}A4 {GAGA}A2 |] $
w:        | chili   vedi che   |   hete   che   divedi I | o  dro  tra       uo   | hen   rarin  e
[V:M][| {gef}ed | {gcd}c2 {e}A2 {gcd}c2 e2 | {ag}a3g {fg}f2 {gf}ga | {f}g2 e2 {g}f2 d2 | {gef}e4 {g}f2 {gf}g2 | $
w:        hete a | hoto un       hoto  e   | chili di vete  divedi I | vedi e che a    |  hete  che divide
[V:M] | {ag}a4 {f}g2 {a}f2 | {gef}e4  {g}f2 {gf}ga | c2 {GdG}c2 {Gdc}d2 {e}B2 |{g}A4 {GAGA}A2 |] $
w:        | chili   vedi che   |   hete   che   divedi I | o  dro  tra       uo   | hen   rarin  e
[V:H]  e2 | aAce gGBd | eAce fBde | cA ce dG Bd | Acea Acea | 
[V:H]     | aAce gGBd | eAce fBde | cA ce dG Bd | Acea Ac | 
[V:H]  ea | ceea ceea | aAcg fGbd | gG Be fBdf| eAcefBdg | 
[V:H]     | aAce gGBd | eAce fBde | cA ce dG Bd | Acea Ac | 
[V:S] z2 | {c}A(Rc c)(Rc c) {c}A (Rcc) | {c}A(Rc c)(Rc c) {c}A (Rcc)|{c}A(Rc c)(Rc c) {c}A (Rcc) | {A}c2 (Rc2 c2) z2 | 
[V:S]   | {c}A(Rc c)(Rc c) {c}A (Rcc) | {c}A(Rc c)(Rc c) {c}A (Rcc)|{c}A(Rc c)(Rc c) {c}A (Rcc) | {A}c2 (Rc2 c2)  | 
[V:S] cA | {c}A(Rc c)(Rc c) {c}A (Rcc) | {c}A(Rc c)(Rc c) {c}A (Rcc)|{c}A(Rc c)(Rc c) {c}A (Rcc) | {A}c2 (Rc2 c2)  z2| 
[V:S]   | {c}A(Rc c)(Rc c) {c}A (Rcc) | {c}A(Rc c)(Rc c) {c}A (Rcc)|{c}A(Rc c)(Rc c) {c}A (Rcc) | {A}c2 (Rc2 c2)  | 

